COLOR/status 16/16/appointment-soon.svg

<svg height="16" width="16" xmlns="http://www.w3.org/2000/svg"><path d="m11.629431.50000605c3.509605 0 3.887237.30899001 3.870032 3.32331005v4.17669 4.1766799c.01717 3.01433-.360427 3.32332-3.870032 3.32332h-7.2593883c-3.50961561 0-3.8700427-.30895-3.8700427-3.32332v-4.1766799-4.17669c0-3.01436004.36043719-3.32331005 3.8700427-3.32331005z" fill="#2b898f"/><path d="m.93208238 5.9999961v3h1.00965622v-3zm13.12553162 0v3h1.009656v-3z" fill="#fff"/><path d="m5.2665064 4.3632761c-.2143399 0-.4149081.027-.5994834.0801-.1845854.0531-.3500579.11865-.4989115.19531-.1488537.0767-.2773627.1596-.3845377.24805-.107175.0826-.1869985.15197-.2405809.21094l.4101728.58398c.041699-.0354.100057-.0855.1774774-.15039.077441-.0708.1728027-.13439.2859347-.19336.1131218-.0649.241641-.12079.3845376-.16797.1428967-.0472.300605-.0723.4732764-.0723.1428967 0 .2772516.0212.4022874.0625.1309828.0354.2439128.0951.339184.17773.095211.0826.1692486.18475.2228311.30859.05957.12384.090667.27427.090667.45118 0 .16512-.033117.32132-.098643.46875-.05957.14743-.1432702.29206-.2504452.43359-.1012181.13563-.219994.27449-.3569337.41602-.047858.0496-.097634.10002-.1478944.15039-.087133.0873-.1778207.17594-.2721327.26562-.1786284.17691-.35969.36013-.5442653.54883-.1845752.18871-.3520368.38731-.5008905.59961-.1488536.2123-.2715268.43986-.3667879.6816395-.089355.23589-.1340924.4923704-.1340924.7695304v.0977c0 .0354.00404.07.010096.10547h3.7507218v-.6972704h-2.8495226c0-.10025.038872-.21984.1163528-.35547.083398-.1356395.1846055-.2763995.3036844-.4238295.119089-.14743.2456494-.28818.3766422-.42382l.3569337-.35352c.1786182-.17691.3557826-.35821.534411-.54102.086528-.0914.170329-.18204.2484663-.27343.083196-.0973.1609695-.19566.2346643-.29297.1428967-.19461.2558267-.38742.3391839-.58203.089355-.2005.1340925-.40685.1340925-.61914 0-.54254-.1635441-.96296-.491016-1.25782-.3215251-.30075-.8063317-.45117-1.4553287-.45117zm5.3342156 0c-.285793 0-.54475.0482-.7769605.14258-.2322108.0885-.4308001.20996-.5975145.36328-.1607575.15333-.2853693.33266-.3746734.53906-.089355.2005-.1340924.41263-.1340924.63672 0 .64279.2920632 1.12875.8755537 1.45899-.032814.0198-.066536.041-.098543.0625-.1020257.0682-.2006691.14521-.295799.23047-.1190889.10615-.2261731.22569-.3214341.36132-.089355.13563-.1632917.28414-.2228312.44336-.053613.15333-.080873.31532-.080873.48633 0 .17692.033117.3659.098643.5664095.065527.1946.1764879.3739404.3312884.5390604.1548106.16512.3592357.30398.6152643.41602.2619755.10615.5871457.1582.9741567.1582.333428 0 .62743-.0443.883449-.13281.256029-.0826.468268-.2002.634983-.35352.172671-.15922.301181-.3424304.384527-.5488304.08935-.2122895.134103-.4417695.134103-.6894495-.0109-.65294-.311984-1.14457-.901199-1.47656h-.002c-.05452-.0307-.110154-.06-.169592-.0879.119078-.0767.232008-.16538.339183-.26563.113132-.10025.212432-.21596.295789-.3457.08935-.12973.157456-.26859.205092-.41602.05361-.15332.08087-.31532.08087-.48633 0-.17692-.03695-.36011-.108467-.54882-.06553-.18871-.174519-.3584-.32932-.51172-.148853-.15922-.343576-.29038-.581733-.39063-.238168-.10026-.524385-.15039-.857813-.15039zm0 .68164h.002c.189613.00024.350663.0331.481171.0977.130993.059.238077.13611.321435.23047.0834.0884.143724.18486.179446.29101.0417.10614.06119.20451.06119.29297 0 .31844-.07401.57684-.222841.77735-.148844.19461-.347433.36624-.597505.51367-.226254-.0531-.422914-.12443-.589629-.21289-.160757-.0884-.2912051-.18874-.3924229-.30078-.1012181-.11205-.1771644-.23355-.2248-.36329-.047656-.12974-.070979-.25893-.070979-.38867 0-.10615.017467-.21222.053209-.31836.041699-.11205.1039744-.21232.1873316-.30078.083398-.0943.1904512-.1715.3214343-.23047.136445-.0588.301392-.0877.491026-.0879zm-.347069 2.72461c.238158.0531.448439.11865.633014.19531.190532.0708.352138.15948.483131.26563.136939.10615.242095.22956.313548.37109.07148.14154.106489.30543.106489.49414 0 .12384-.02332.24534-.07098.36328-.04766.1179395-.119685.2240095-.214946.3183595-.09531.0885-.219862.16174-.374673.22071-.148854.059-.326058.0898-.528495.0898-.226253 0-.413161-.0328-.562015-.0977-.1488431-.0649-.2715264-.14393-.3667875-.23828-.095311-.10025-.1634027-.20826-.2050915-.3203095-.035742-.11794-.053209-.22979-.053209-.33594 0-.30075.072089-.55914.2149457-.77734.1488536-.21819.3571862-.4014.6251183-.54883z" fill="#fff"/><path d="m4.3692499.5c-3.50960553 0-3.86903434.30985871-3.86903434 3.3242188v.5c0-3.01436.35942882-3.3242188 3.86903434-3.3242188h7.2608481c3.509606 0 3.886239.3098987 3.869034 3.3242188v-.5c.017205-3.01432009-.359428-3.3242188-3.869034-3.3242188z" fill="#fcfcfc" opacity=".3"/><path d="m.50021556 11.675781v.5c0 3.01437.35941872 3.324219 3.86903434 3.324219h7.2608481c3.509606 0 3.886198-.309889 3.869034-3.324219v-.5c.017164 3.01433-.359428 3.324219-3.869034 3.324219h-7.2608481c-3.50961561 0-3.86903433-.309849-3.86903434-3.324219z" opacity=".2"/><g transform="translate(-26.129961 1.355932)"><path d="m37.394707 8.061265h1.59322v5.40678h-1.59322z" fill="#fff"/><g fill-rule="evenodd" stroke-width="1.207559"><path d="m38.106528 6.6446198a.50640365.56510214 0 0 0 -.411524.2806377l-3.499101 6.8845485a.49954491.5574484 0 0 0 .433244.834262h7.00163a.49954491.5574484 0 0 0 .433244-.834262l-3.496814-6.8845485a.50526053.56382657 0 0 0 -.459536-.2806377zm-.548699 1.6213202h1.143123v.2143053c0 .4451935-.01829.8521175-.05373 1.2207733-.03429.3699324-.07887.7411384-.131459 1.1161724h-.76132a14.744005 16.453017 0 0 1 -.14289-1.1161724 10.455006 11.666871 0 0 1 -.05373-1.2207733zm.571562 3.82688a.57156173.6378129 0 1 1 0 1.275619.57156173.6378129 0 0 1 0-1.275619z" fill="#fdc92b"/><path d="m11.976562 8c-.17117.00988-.326244.1157152-.412109.28125l-3.4980468 6.884766c-.083525.162097-.088659.360128-.013672.527343.00433-.0093.00889-.01837.013672-.02734l3.4980468-6.884769c.085865-.1655348.240939-.271367.412109-.28125h.002c.187989-.00893.364853.099444.458984.28125l3.496094 6.884766c.0048.009.0093.01809.01367.02734.07499-.167215.06985-.365246-.01367-.527343l-3.49614-6.884763c-.094131-.1818058-.270995-.2901825-.458984-.28125z" fill="#fff" opacity=".3" transform="translate(26.129961 -1.355932)"/><path d="m8.0527344 15.193359c-.1660633.370821.0757794.806983.4472656.806641h7c.371486.000342.613329-.43582.447266-.806641-.08507.188434-.258188.307121-.447266.306641h-7c-.1890783.00048-.3621957-.118207-.4472656-.306641z" opacity=".2" transform="translate(26.129961 -1.355932)"/></g></g></svg>

<?xml version="1.0" encoding="UTF-8" standalone="no"?>
<svg
   xmlns:dc="http://purl.org/dc/elements/1.1/"
   xmlns:cc="http://creativecommons.org/ns#"
   xmlns:rdf="http://www.w3.org/1999/02/22-rdf-syntax-ns#"
   xmlns:svg="http://www.w3.org/2000/svg"
   xmlns="http://www.w3.org/2000/svg"
   xmlns:sodipodi="http://sodipodi.sourceforge.net/DTD/sodipodi-0.dtd"
   xmlns:inkscape="http://www.inkscape.org/namespaces/inkscape"
   height="16"
   width="16"
   version="1.1"
   id="svg12"
   sodipodi:docname="1.svg"
   inkscape:version="0.92.4 (5da689c313, 2019-01-14)">
  <metadata
     id="metadata18">
    <rdf:RDF>
      <cc:Work
         rdf:about="">
        <dc:format>image/svg+xml</dc:format>
        <dc:type
           rdf:resource="http://purl.org/dc/dcmitype/StillImage" />
        <dc:title></dc:title>
      </cc:Work>
    </rdf:RDF>
  </metadata>
  <defs
     id="defs16" />
  <sodipodi:namedview
     pagecolor="#ffffff"
     bordercolor="#666666"
     borderopacity="1"
     objecttolerance="10"
     gridtolerance="10"
     guidetolerance="10"
     inkscape:pageopacity="0"
     inkscape:pageshadow="2"
     inkscape:window-width="1920"
     inkscape:window-height="1016"
     id="namedview14"
     showgrid="false"
     inkscape:zoom="59"
     inkscape:cx="10.698485"
     inkscape:cy="6.1351151"
     inkscape:window-x="0"
     inkscape:window-y="27"
     inkscape:window-maximized="1"
     inkscape:current-layer="g842" />
  <path
     d="m11.629431.50000605c3.509605 0 3.887237.30899001 3.870032 3.32331005v4.17669 4.1766799c.01717 3.01433-.360427 3.32332-3.870032 3.32332h-7.2593883c-3.50961561 0-3.8700427-.30895-3.8700427-3.32332v-4.1766799-4.17669c0-3.01436004.36043719-3.32331005 3.8700427-3.32331005z"
     fill="#2b898f"
     id="path2" />
  <path
     d="m.93208238 5.9999961v3h1.00965622v-3zm13.12553162 0v3h1.009656v-3z"
     fill="#fff"
     id="path4" />
  <path
     d="m5.2665064 4.3632761c-.2143399 0-.4149081.027-.5994834.0801-.1845854.0531-.3500579.11865-.4989115.19531-.1488537.0767-.2773627.1596-.3845377.24805-.107175.0826-.1869985.15197-.2405809.21094l.4101728.58398c.041699-.0354.100057-.0855.1774774-.15039.077441-.0708.1728027-.13439.2859347-.19336.1131218-.0649.241641-.12079.3845376-.16797.1428967-.0472.300605-.0723.4732764-.0723.1428967 0 .2772516.0212.4022874.0625.1309828.0354.2439128.0951.339184.17773.095211.0826.1692486.18475.2228311.30859.05957.12384.090667.27427.090667.45118 0 .16512-.033117.32132-.098643.46875-.05957.14743-.1432702.29206-.2504452.43359-.1012181.13563-.219994.27449-.3569337.41602-.047858.0496-.097634.10002-.1478944.15039-.087133.0873-.1778207.17594-.2721327.26562-.1786284.17691-.35969.36013-.5442653.54883-.1845752.18871-.3520368.38731-.5008905.59961-.1488536.2123-.2715268.43986-.3667879.6816395-.089355.23589-.1340924.4923704-.1340924.7695304v.0977c0 .0354.00404.07.010096.10547h3.7507218v-.6972704h-2.8495226c0-.10025.038872-.21984.1163528-.35547.083398-.1356395.1846055-.2763995.3036844-.4238295.119089-.14743.2456494-.28818.3766422-.42382l.3569337-.35352c.1786182-.17691.3557826-.35821.534411-.54102.086528-.0914.170329-.18204.2484663-.27343.083196-.0973.1609695-.19566.2346643-.29297.1428967-.19461.2558267-.38742.3391839-.58203.089355-.2005.1340925-.40685.1340925-.61914 0-.54254-.1635441-.96296-.491016-1.25782-.3215251-.30075-.8063317-.45117-1.4553287-.45117zm5.3342156 0c-.285793 0-.54475.0482-.7769605.14258-.2322108.0885-.4308001.20996-.5975145.36328-.1607575.15333-.2853693.33266-.3746734.53906-.089355.2005-.1340924.41263-.1340924.63672 0 .64279.2920632 1.12875.8755537 1.45899-.032814.0198-.066536.041-.098543.0625-.1020257.0682-.2006691.14521-.295799.23047-.1190889.10615-.2261731.22569-.3214341.36132-.089355.13563-.1632917.28414-.2228312.44336-.053613.15333-.080873.31532-.080873.48633 0 .17692.033117.3659.098643.5664095.065527.1946.1764879.3739404.3312884.5390604.1548106.16512.3592357.30398.6152643.41602.2619755.10615.5871457.1582.9741567.1582.333428 0 .62743-.0443.883449-.13281.256029-.0826.468268-.2002.634983-.35352.172671-.15922.301181-.3424304.384527-.5488304.08935-.2122895.134103-.4417695.134103-.6894495-.0109-.65294-.311984-1.14457-.901199-1.47656h-.002c-.05452-.0307-.110154-.06-.169592-.0879.119078-.0767.232008-.16538.339183-.26563.113132-.10025.212432-.21596.295789-.3457.08935-.12973.157456-.26859.205092-.41602.05361-.15332.08087-.31532.08087-.48633 0-.17692-.03695-.36011-.108467-.54882-.06553-.18871-.174519-.3584-.32932-.51172-.148853-.15922-.343576-.29038-.581733-.39063-.238168-.10026-.524385-.15039-.857813-.15039zm0 .68164h.002c.189613.00024.350663.0331.481171.0977.130993.059.238077.13611.321435.23047.0834.0884.143724.18486.179446.29101.0417.10614.06119.20451.06119.29297 0 .31844-.07401.57684-.222841.77735-.148844.19461-.347433.36624-.597505.51367-.226254-.0531-.422914-.12443-.589629-.21289-.160757-.0884-.2912051-.18874-.3924229-.30078-.1012181-.11205-.1771644-.23355-.2248-.36329-.047656-.12974-.070979-.25893-.070979-.38867 0-.10615.017467-.21222.053209-.31836.041699-.11205.1039744-.21232.1873316-.30078.083398-.0943.1904512-.1715.3214343-.23047.136445-.0588.301392-.0877.491026-.0879zm-.347069 2.72461c.238158.0531.448439.11865.633014.19531.190532.0708.352138.15948.483131.26563.136939.10615.242095.22956.313548.37109.07148.14154.106489.30543.106489.49414 0 .12384-.02332.24534-.07098.36328-.04766.1179395-.119685.2240095-.214946.3183595-.09531.0885-.219862.16174-.374673.22071-.148854.059-.326058.0898-.528495.0898-.226253 0-.413161-.0328-.562015-.0977-.1488431-.0649-.2715264-.14393-.3667875-.23828-.095311-.10025-.1634027-.20826-.2050915-.3203095-.035742-.11794-.053209-.22979-.053209-.33594 0-.30075.072089-.55914.2149457-.77734.1488536-.21819.3571862-.4014.6251183-.54883z"
     fill="#fff"
     id="path6" />
  <path
     d="m4.3692499.5c-3.50960553 0-3.86903434.30985871-3.86903434 3.3242188v.5c0-3.01436.35942882-3.3242188 3.86903434-3.3242188h7.2608481c3.509606 0 3.886239.3098987 3.869034 3.3242188v-.5c.017205-3.01432009-.359428-3.3242188-3.869034-3.3242188z"
     fill="#fcfcfc"
     opacity=".3"
     id="path8" />
  <path
     d="m.50021556 11.675781v.5c0 3.01437.35941872 3.324219 3.86903434 3.324219h7.2608481c3.509606 0 3.886198-.309889 3.869034-3.324219v-.5c.017164 3.01433-.359428 3.324219-3.869034 3.324219h-7.2608481c-3.50961561 0-3.86903433-.309849-3.86903434-3.324219z"
     opacity=".2"
     id="path10" />
  <g
     id="g842"
     transform="translate(-26.129961,1.3559322)">
    <rect
       style="opacity:1;fill:#ffffff;fill-opacity:1;stroke:none;stroke-width:0.5;stroke-linecap:round;stroke-linejoin:round;stroke-miterlimit:4;stroke-dasharray:none;stroke-opacity:1"
       id="rect844"
       width="1.5932204"
       height="5.4067798"
       x="37.394707"
       y="8.061265" />
    <path
       id="path830"
       d="m 38.106528,6.6446198 a 0.50640365,0.56510214 0 0 0 -0.411524,0.2806377 l -3.499101,6.8845485 a 0.49954491,0.5574484 0 0 0 0.433244,0.834262 h 7.00163 a 0.49954491,0.5574484 0 0 0 0.433244,-0.834262 L 38.567207,6.9252575 A 0.50526053,0.56382657 0 0 0 38.107671,6.6446198 Z M 37.557829,8.26594 h 1.143123 v 0.2143053 c 0,0.4451935 -0.01829,0.8521175 -0.05373,1.2207733 -0.03429,0.3699324 -0.07887,0.7411384 -0.131459,1.1161724 h -0.76132 a 14.744005,16.453017 0 0 1 -0.14289,-1.1161724 10.455006,11.666871 0 0 1 -0.05373,-1.2207733 z m 0.571562,3.82688 a 0.57156173,0.6378129 0 1 1 0,1.275619 0.57156173,0.6378129 0 0 1 0,-1.275619 z"
       inkscape:connector-curvature="0"
       style="fill:#fdc92b;fill-rule:evenodd;stroke-width:1.20755851" />
    <path
       style="opacity:0.3;fill:#ffffff;fill-opacity:1;fill-rule:evenodd;stroke-width:1.20755851"
       d="m 11.976562,8 c -0.17117,0.00988 -0.326244,0.1157152 -0.412109,0.28125 l -3.4980468,6.884766 c -0.083525,0.162097 -0.088659,0.360128 -0.013672,0.527343 0.00433,-0.0093 0.00889,-0.01837 0.013672,-0.02734 L 11.564453,8.78125 C 11.650318,8.6157152 11.805392,8.509883 11.976562,8.5 h 0.002 c 0.187989,-0.00893 0.364853,0.099444 0.458984,0.28125 l 3.496094,6.884766 c 0.0048,0.009 0.0093,0.01809 0.01367,0.02734 0.07499,-0.167215 0.06985,-0.365246 -0.01367,-0.527343 L 12.4375,8.28125 C 12.343369,8.0994442 12.166505,7.9910675 11.978516,8 Z"
       transform="translate(26.129961,-1.3559322)"
       id="path846"
       inkscape:connector-curvature="0"
       sodipodi:nodetypes="ccccccccccccccc" />
    <path
       style="opacity:0.2;fill:#000000;fill-opacity:1;fill-rule:evenodd;stroke-width:1.20755851"
       d="M 8.0527344,15.193359 C 7.8866711,15.56418 8.1285138,16.000342 8.5,16 h 7 c 0.371486,3.42e-4 0.613329,-0.43582 0.447266,-0.806641 C 15.862196,15.381793 15.689078,15.50048 15.5,15.5 h -7 C 8.3109217,15.50048 8.1378043,15.381793 8.0527344,15.193359 Z"
       transform="translate(26.129961,-1.3559322)"
       id="path851"
       inkscape:connector-curvature="0"
       sodipodi:nodetypes="ccccccc" />
  </g>
</svg>
